X: 28
T:Childgrove
M:4/4
L:1/8
K:G
B2  e2 e2 f2| g4 f2 e2| a2 g2 f2 e2|f3 e dc B2| B2 e2 e2 f2| g4 f2 b2| a3 g fgfe| e6:|
|: ga|b2 g2 g2 b2| a2 f2 f2 a2| g2 e2 efge| f2 B4 ga| b2 g2 g2 b2| a2 g2 fgaf| g2 fe f2 e^d| e6:|

